src/img/categories/category-2.svg

<svg width="157" height="124" viewBox="0 0 157 124" fill="none" xmlns="http://www.w3.org/2000/svg">
<rect y="74.8792" width="148.517" height="56" rx="28" transform="rotate(-30 0 74.8792)" fill="url(#paint0_linear)"/>
<g clip-path="url(#clip0)">
<path d="M93.0187 51.719C93.0187 50.9977 92.2524 50.5351 91.614 50.8709L90.4184 51.4992C89.6715 51.8923 88.7504 51.697 88.2275 51.0345L88.0383 50.7953C87.5302 50.1517 86.789 49.7346 85.9752 49.6339L83.377 49.3129C82.8673 49.25 82.5979 48.6765 82.8755 48.244L84.4223 45.8323C84.9923 44.9444 84.9575 43.7978 84.3354 42.9462L83.929 42.3896C83.54 41.8564 82.9195 41.5415 82.259 41.5415H64.163C62.9628 41.5415 61.9895 42.5143 61.9895 43.7145V65.7675L93.0187 69.4014V51.719Z" fill="#A98063"/>
<path d="M92.9722 77.1636C92.0689 77.5178 91.0563 77.4585 90.2001 77.0016L80.9985 72.0892C80.0042 71.5586 78.8541 71.3971 77.752 71.6342L71.7054 72.9342C70.4627 73.201 69.1669 72.8682 68.2069 72.0355L60.823 65.631V98.9477H94.1852V76.6877L92.9722 77.1636ZM74.6206 93.6152L76.6443 87.8129C76.6837 87.7004 76.6586 87.5752 76.5784 87.4867L72.193 82.6408C71.393 81.757 71.5505 80.3722 72.5278 79.6898L78.141 75.7742C78.3864 75.603 78.713 75.8243 78.6455 76.1157L77.2199 82.2334C77.1897 82.3632 77.2419 82.4987 77.3513 82.5749L82.763 86.3417C82.9338 86.4603 82.9511 86.7067 82.7988 86.8483L75.1507 93.9612C74.9012 94.1928 74.5086 93.9362 74.6206 93.6152Z" fill="#F59E27"/>
<path d="M59.406 102.099C59.0983 102.784 59.5563 103.568 60.3037 103.637L66.04 104.165C73.6667 104.867 81.3415 104.867 88.9681 104.165L94.7045 103.637C95.4524 103.568 95.9104 102.784 95.6021 102.099L94.1852 98.9477H60.823L59.406 102.099Z" fill="#D7D7E6"/>
<path d="M68.2069 72.0355C69.1669 72.8682 70.4627 73.201 71.7054 72.9342L77.752 71.6342C78.8541 71.3971 80.0042 71.5586 80.9985 72.0892L90.2001 77.0016C91.0563 77.4585 92.0689 77.5173 92.9722 77.1636L94.1852 76.6877L94.4638 76.5783C95.4329 76.1985 95.9431 75.1327 95.6313 74.1395L94.1852 69.5384L93.0187 69.4014L61.9895 65.768L60.823 65.631L68.2069 72.0355Z" fill="#D7D7E6"/>
<path d="M91.7101 46.3323C92.2586 46.5884 92.965 46.6032 93.4225 46.206C94.1642 45.5629 94.2107 43.4579 94.178 42.5481C94.133 41.3105 93.0606 40.6174 91.9406 40.3817C90.4536 40.0689 87.8937 40.7237 88.413 42.7305C88.7269 43.9425 90.586 45.8078 91.7101 46.3323Z" fill="#A98063"/>
<path d="M82.7988 86.8478C82.9511 86.7062 82.9338 86.4603 82.763 86.3417L77.3512 82.5749C77.2418 82.4987 77.1897 82.3632 77.2199 82.2334L78.6455 76.1152C78.713 75.8243 78.3864 75.603 78.141 75.7737L72.5278 79.6898C71.5505 80.3717 71.393 81.757 72.193 82.6408L76.5783 87.4867C76.6586 87.5752 76.6836 87.7004 76.6443 87.8129L74.6206 93.6152C74.5086 93.9362 74.9012 94.1928 75.1506 93.9612L82.7988 86.8478Z" fill="#FF5A5A"/>
<path d="M96.8796 73.7474L95.4335 69.1464C95.4319 69.1413 95.4294 69.1367 95.4278 69.1316C95.41 69.0779 95.3895 69.0257 95.366 68.9756C95.3645 68.9726 95.3634 68.969 95.3619 68.9659C95.3374 68.9153 95.3087 68.8668 95.2781 68.8208C95.2714 68.8105 95.2648 68.8008 95.2581 68.7911C95.227 68.7461 95.1932 68.7027 95.1569 68.6623C95.1528 68.6577 95.1482 68.6531 95.1436 68.6485C95.1094 68.6117 95.0721 68.5764 95.0337 68.5437C95.0261 68.5371 95.0184 68.5304 95.0107 68.5238C94.9683 68.489 94.9238 68.4573 94.8773 68.4282C94.8691 68.4236 94.861 68.419 94.8528 68.4139C94.8083 68.3873 94.7618 68.3627 94.7137 68.3418C94.7086 68.3397 94.704 68.3372 94.6994 68.3351C94.6483 68.3132 94.5951 68.2953 94.5415 68.2799C94.5297 68.2769 94.518 68.2738 94.5062 68.2707C94.451 68.2569 94.3953 68.2452 94.3375 68.2385L94.3278 68.237V51.7195C94.3278 50.918 93.9184 50.1926 93.2324 49.7786C92.5469 49.3645 91.7142 49.3395 91.0052 49.7126L89.8095 50.3414C89.6204 50.4411 89.3873 50.3915 89.2549 50.2238C89.2544 50.2238 89.2544 50.2233 89.2544 50.2233L89.0658 49.9846C88.3394 49.0645 87.2987 48.4787 86.1358 48.3355L84.5015 48.1336L85.5244 46.5388C86.3791 45.2066 86.3259 43.4528 85.3925 42.1744L84.9861 41.6182C84.3528 40.7508 83.3335 40.2329 82.2595 40.2329H64.163C62.243 40.2329 60.6809 41.7951 60.6809 43.7145V64.3311C60.6477 64.3347 60.6144 64.3398 60.5817 64.346C60.5736 64.3475 60.5659 64.3485 60.5582 64.35C60.5199 64.3582 60.4815 64.3679 60.4442 64.3797C60.4294 64.3838 60.4146 64.3894 60.3998 64.3945C60.3757 64.4027 60.3522 64.4114 60.3292 64.4206C60.3129 64.4272 60.2975 64.4339 60.2817 64.441C60.2566 64.4523 60.2326 64.4645 60.2081 64.4773C60.1932 64.4855 60.1784 64.4932 60.1636 64.5014C60.1339 64.5192 60.1048 64.5376 60.0762 64.5576C60.0634 64.5663 60.0506 64.576 60.0384 64.5852C60.0164 64.6015 59.9949 64.6189 59.9739 64.6368C59.9673 64.6424 59.9596 64.6475 59.953 64.6532C59.9489 64.6573 59.9453 64.6614 59.9412 64.6649C59.9116 64.692 59.8824 64.7201 59.8554 64.7498C59.8543 64.7513 59.8533 64.7523 59.8518 64.7539C59.8247 64.7835 59.7991 64.8152 59.7751 64.8479C59.7679 64.8576 59.7613 64.8674 59.7547 64.8771C59.7368 64.9021 59.7199 64.9282 59.7035 64.9548C59.6974 64.965 59.6908 64.9752 59.6846 64.9859C59.6672 65.0176 59.6509 65.0493 59.6356 65.0826C59.633 65.0877 59.6299 65.0928 59.6279 65.0979C59.6274 65.0994 59.6264 65.101 59.6253 65.1025C59.609 65.1398 59.5952 65.1776 59.5824 65.2155C59.5793 65.2247 59.5768 65.2339 59.5742 65.2431C59.564 65.2748 59.5553 65.3064 59.5481 65.3381C59.5456 65.3494 59.543 65.3611 59.541 65.3724C59.5338 65.4066 59.5287 65.4409 59.5241 65.4756C59.5236 65.4828 59.5221 65.49 59.5216 65.4971C59.517 65.5395 59.5149 65.582 59.5144 65.6244V65.631V98.6671L58.2124 101.562C57.895 102.268 57.9385 103.089 58.3285 103.758C58.719 104.427 59.4127 104.869 60.1835 104.94L63.6038 105.255C63.613 105.257 63.6222 105.26 63.6314 105.261C63.7147 105.278 63.7975 105.285 63.8793 105.285C63.8921 105.285 63.9049 105.284 63.9171 105.284L65.9199 105.468C67.1886 105.585 68.4609 105.68 69.7343 105.759C69.7639 105.764 69.7931 105.769 69.8237 105.772C69.8677 105.776 69.9111 105.779 69.9546 105.779C69.973 105.779 69.9914 105.777 70.0098 105.776C72.4926 105.923 74.9825 105.998 77.4724 105.998C77.4831 105.999 77.4934 106 77.5041 106C77.5148 106 77.5251 105.999 77.5353 105.998C80.0257 105.998 82.5156 105.923 84.9984 105.776C85.0168 105.777 85.0352 105.779 85.0536 105.779C85.0971 105.779 85.1405 105.776 85.185 105.772C85.2151 105.769 85.2443 105.764 85.2739 105.759C86.5478 105.68 87.8196 105.585 89.0883 105.468L91.0911 105.284C91.1033 105.284 91.1161 105.285 91.1284 105.285C91.2102 105.285 91.2935 105.278 91.3768 105.261C91.386 105.26 91.3952 105.257 91.4044 105.255L94.8247 104.94C95.5955 104.869 96.2892 104.427 96.6792 103.758C97.0697 103.089 97.1132 102.268 96.7957 101.562L95.4938 98.6671V77.5173C96.7318 76.7357 97.3325 75.1889 96.8796 73.7474ZM94.3825 74.5321C94.4883 74.8679 94.314 75.2314 93.9863 75.3602L92.8766 75.7952L92.4947 75.945C92.2417 76.0446 91.9754 76.0881 91.7101 76.0809C91.4018 76.0733 91.0957 75.9966 90.8166 75.8473L81.6149 70.935C80.7296 70.4621 79.7441 70.2193 78.7519 70.2193C78.3261 70.2193 77.8987 70.2643 77.4775 70.3548L71.4309 71.6547C70.5951 71.8341 69.7102 71.6072 69.0641 71.0469L64.8884 67.4247L89.3101 70.2848L91.7106 70.5659L92.8766 70.7024L93.191 70.7392L94.3825 74.5321ZM91.7101 67.9308L78.8127 66.4203V57.6992H91.7101V67.9308ZM82.8724 43.1614L83.2788 43.7176C83.5799 44.1301 83.5968 44.696 83.3212 45.1259L81.7739 47.5376C81.3992 48.1214 81.3517 48.8452 81.6461 49.4734C81.9411 50.1016 82.5284 50.5274 83.2164 50.6123L85.8147 50.9328C86.2896 50.9916 86.7149 51.2308 87.0119 51.6065L87.2005 51.8458C88.114 53.002 89.7232 53.3435 91.0277 52.6575L91.7101 52.2986V55.082H78.8127V42.8501H82.259C82.5008 42.8501 82.7298 42.9667 82.8724 43.1614ZM63.2981 43.715C63.2981 43.2381 63.6861 42.8501 64.163 42.8501H76.1955V55.0825H71.2995C70.5767 55.0825 69.9909 55.6683 69.9909 56.3911C69.9909 57.1134 70.5767 57.6997 71.2995 57.6997H76.1955V66.1141L63.2981 64.6036V43.715ZM61.6695 100.257H63.2603L62.8186 102.555L60.7228 102.361L61.6695 100.257ZM65.4374 102.795L65.925 100.257H69.0575L68.7768 103.073C67.9033 103.012 67.0312 102.942 66.1602 102.862L65.4374 102.795ZM71.6875 100.257H76.1955V103.374C74.593 103.357 72.991 103.309 71.3915 103.229L71.6875 100.257ZM64.8372 97.6391C64.8316 97.6391 64.8255 97.6391 64.8199 97.6391H62.1316V68.4987L63.2981 69.5103L67.3491 73.0241C68.6133 74.1206 70.3446 74.5653 71.9804 74.2136L78.027 72.9137C78.8255 72.7425 79.6618 72.859 80.382 73.2439L89.5841 78.1558C90.2476 78.51 90.9766 78.692 91.7101 78.7002C91.727 78.7002 91.7443 78.7017 91.7612 78.7017C92.1349 78.7017 92.5096 78.6552 92.8766 78.5637V97.6391H90.1822C90.1817 97.6391 90.1817 97.6391 90.1812 97.6391H64.8372ZM78.8127 103.374V100.257H83.3207L83.6167 103.229C82.0172 103.309 80.4152 103.357 78.8127 103.374ZM88.848 102.862C87.977 102.942 87.1049 103.012 86.2313 103.073L85.9507 100.257H89.0832L89.5708 102.795L88.848 102.862ZM92.1896 102.555L91.7484 100.257H93.3387L94.2854 102.361L92.1896 102.555Z" fill="#44220F"/>
<path d="M91.1565 47.5182C91.5992 47.7247 92.0648 47.8259 92.5167 47.8259C93.1731 47.8259 93.7992 47.6117 94.2802 47.1946C95.3823 46.2392 95.5439 44.1148 95.4856 42.501C95.4248 40.8162 94.1698 39.5137 92.21 39.1012C90.8503 38.8154 88.9099 39.115 87.8344 40.2421C87.1152 40.9946 86.8713 41.9944 87.1463 43.0582C87.6044 44.8279 89.8632 46.9145 91.1565 47.5182ZM89.7267 42.0491C89.9772 41.7869 90.5967 41.6146 91.1759 41.6146C91.3482 41.6146 91.5169 41.63 91.6712 41.6622C91.9462 41.7204 92.8469 41.9592 92.8699 42.5951C92.917 43.9011 92.7288 44.9096 92.5617 45.2056C92.5014 45.2128 92.3838 45.2025 92.2637 45.1463C91.3875 44.7374 89.8663 43.1216 89.6797 42.4023C89.6179 42.1631 89.6731 42.1054 89.7267 42.0491Z" fill="#44220F"/>
<path d="M83.5104 85.2672L78.6455 81.8817L79.9199 76.4127C80.0748 75.7476 79.8095 75.0709 79.2446 74.688C78.6793 74.3046 77.9524 74.3102 77.3926 74.7008L71.779 78.6169C71.005 79.1567 70.5 80.0042 70.3937 80.9422C70.2874 81.8797 70.5895 82.8192 71.2223 83.5185L75.2166 87.9325L73.6381 92.4579L73.3845 93.1842C73.1397 93.8866 73.3983 94.6595 74.0118 95.0751C74.0194 95.0802 74.0266 95.0858 74.0342 95.0909C74.3082 95.2703 74.619 95.3577 74.9283 95.3577C75.2503 95.3577 75.5693 95.2611 75.8438 95.0751C75.9123 95.028 75.9793 94.9774 76.0416 94.9192L78.6885 92.4574L83.6893 87.8062C84.0532 87.4683 84.2418 86.9899 84.2071 86.4945C84.1723 85.9987 83.9188 85.5519 83.5104 85.2672ZM77.1616 90.3038L77.8798 88.2448C78.0771 87.6804 77.9508 87.0538 77.5486 86.6085L73.1632 81.7626C72.9863 81.5673 72.9812 81.3496 72.994 81.2371C73.0068 81.1252 73.0605 80.9136 73.2767 80.7628L76.7895 78.3122L75.9455 81.9364C75.7927 82.5922 76.0513 83.2644 76.6034 83.6488L81.0153 86.7194L77.1616 90.3038Z" fill="#44220F"/>
<path d="M67.273 55.8907C67.2403 55.8109 67.1999 55.7348 67.1528 55.6642C67.1058 55.5921 67.0506 55.5257 66.9903 55.4654C66.6872 55.1617 66.2343 55.0217 65.809 55.1081C65.7267 55.1249 65.6439 55.15 65.5641 55.1827C65.4854 55.2154 65.4098 55.2558 65.3392 55.3028C65.2671 55.3504 65.2002 55.405 65.1399 55.4654C65.08 55.5257 65.0248 55.5921 64.9763 55.6642C64.9293 55.7348 64.8889 55.8109 64.8562 55.8907C64.8234 55.9694 64.7984 56.0517 64.7815 56.1355C64.7647 56.2193 64.757 56.3052 64.757 56.3906C64.757 56.7346 64.8955 57.072 65.1404 57.3158C65.2002 57.3756 65.2671 57.4308 65.3392 57.4794C65.4098 57.5264 65.4859 57.5668 65.5641 57.5995C65.6444 57.6322 65.7267 57.6573 65.809 57.6741C65.8938 57.691 65.9802 57.6987 66.0656 57.6987C66.1504 57.6987 66.2368 57.691 66.3207 57.6741C66.4045 57.6573 66.4868 57.6322 66.5655 57.5995C66.6453 57.5668 66.7209 57.5264 66.7914 57.4794C66.8635 57.4308 66.9305 57.3756 66.9908 57.3158C67.0511 57.2555 67.1058 57.1885 67.1528 57.1165C67.1999 57.0459 67.2408 56.9703 67.2735 56.8915C67.3062 56.8118 67.3307 56.7295 67.3476 56.6467C67.365 56.5618 67.3742 56.4754 67.3742 56.3901C67.3742 56.3052 67.365 56.2188 67.3476 56.135C67.3307 56.0517 67.3057 55.9689 67.273 55.8907Z" fill="#44220F"/>
</g>
<defs>
<linearGradient id="paint0_linear" x1="1.87681" y1="107.012" x2="143.815" y2="101.991" gradientUnits="userSpaceOnUse">
<stop stop-color="#F59E27"/>
<stop offset="0.475947" stop-color="#F59E27" stop-opacity="0.621502"/>
<stop offset="0.855808" stop-color="#F59E27" stop-opacity="0.0780566"/>
<stop offset="1" stop-color="#F59E27" stop-opacity="0"/>
</linearGradient>
<clipPath id="clip0">
<rect width="67" height="67" fill="white" transform="translate(44 39)"/>
</clipPath>
</defs>
</svg>

<svg width="157" height="124" fill="none" xmlns="http://www.w3.org/2000/svg"><rect y="74.879" width="148.517" height="56" rx="28" transform="rotate(-30 0 74.88)" fill="url(#paint0_linear)"/><g clip-path="url(#clip0)"><path d="M93.019 51.719a.958.958 0 0 0-1.405-.848l-1.196.628a1.752 1.752 0 0 1-2.19-.465l-.19-.239a3.116 3.116 0 0 0-2.063-1.161l-2.598-.321a.697.697 0 0 1-.501-1.069l1.546-2.412a2.554 2.554 0 0 0-.087-2.886l-.406-.556a2.067 2.067 0 0 0-1.67-.849H64.163c-1.2 0-2.173.973-2.173 2.174v22.052l31.029 3.634V51.72z" fill="#A98063"/><path d="M92.972 77.164a3.316 3.316 0 0 1-2.772-.162L81 72.089a4.766 4.766 0 0 0-3.247-.455l-6.047 1.3a4.044 4.044 0 0 1-3.498-.898l-7.384-6.405v33.317h33.362v-22.26l-1.213.476zM74.621 93.615l2.023-5.802a.326.326 0 0 0-.066-.326l-4.385-4.846a1.98 1.98 0 0 1 .335-2.951l5.613-3.916a.326.326 0 0 1 .504.342l-1.425 6.117c-.03.13.022.266.131.342l5.412 3.767c.17.118.188.365.036.506l-7.648 7.113c-.25.232-.642-.025-.53-.346z" fill="#F59E27"/><path d="M59.406 102.099c-.308.685.15 1.469.898 1.538l5.736.528c7.627.702 15.301.702 22.928 0l5.736-.528a1.094 1.094 0 0 0 .898-1.538l-1.417-3.151H60.823l-1.417 3.151zM68.207 72.035a4.044 4.044 0 0 0 3.498.9l6.047-1.3a4.766 4.766 0 0 1 3.247.454l9.201 4.913a3.318 3.318 0 0 0 2.772.162l1.213-.476.279-.11a1.982 1.982 0 0 0 1.167-2.439l-1.446-4.6-1.166-.138-31.03-3.633-1.166-.137 7.384 6.404z" fill="#D7D7E6"/><path d="M91.71 46.332c.549.256 1.255.271 1.713-.126.741-.643.788-2.748.755-3.658-.045-1.238-1.117-1.93-2.237-2.166-1.487-.313-4.047.342-3.528 2.349.314 1.212 2.173 3.077 3.297 3.601z" fill="#A98063"/><path d="M82.799 86.848a.326.326 0 0 0-.036-.506l-5.412-3.767a.326.326 0 0 1-.131-.342l1.425-6.118a.326.326 0 0 0-.504-.341l-5.613 3.916a1.98 1.98 0 0 0-.335 2.95l4.385 4.847c.08.088.106.213.066.326l-2.023 5.802c-.112.321.28.578.53.346l7.648-7.113z" fill="#FF5A5A"/><path d="M96.88 73.747l-1.447-4.6-.005-.015a1.418 1.418 0 0 0-.062-.156l-.004-.01a1.236 1.236 0 0 0-.104-.175 1.292 1.292 0 0 0-.224-.247l-.023-.02a1.28 1.28 0 0 0-.297-.182l-.015-.007a1.341 1.341 0 0 0-.157-.055l-.036-.01a1.32 1.32 0 0 0-.168-.031l-.01-.002V51.72a2.25 2.25 0 0 0-1.096-1.941 2.249 2.249 0 0 0-2.227-.066l-1.195.628c-.19.1-.423.05-.555-.117l-.19-.24a4.396 4.396 0 0 0-2.93-1.648l-1.634-.202 1.023-1.595a3.888 3.888 0 0 0-.132-4.365l-.406-.556a3.387 3.387 0 0 0-2.727-1.385H64.163a3.486 3.486 0 0 0-3.482 3.482V64.33a1.268 1.268 0 0 0-.1.015l-.023.004a1.239 1.239 0 0 0-.114.03l-.044.014a1.432 1.432 0 0 0-.192.083l-.044.024c-.03.018-.06.037-.088.057-.013.008-.025.018-.038.027a1.214 1.214 0 0 0-.064.052l-.021.016-.012.012c-.03.027-.059.055-.086.085l-.003.004c-.027.03-.053.061-.077.094l-.02.03a1.354 1.354 0 0 0-.052.077l-.018.03a1.51 1.51 0 0 0-.05.098l-.007.015a1.398 1.398 0 0 0-.045.118l-.009.027c-.01.032-.019.063-.026.095l-.007.034a1.378 1.378 0 0 0-.017.104l-.002.021a1.325 1.325 0 0 0-.008.127v33.043l-1.302 2.895a2.408 2.408 0 0 0 .116 2.196 2.409 2.409 0 0 0 1.855 1.182l3.42.315.028.006c.084.017.166.024.248.024l.038-.001 2.003.184c1.269.117 2.54.212 3.814.291a1.444 1.444 0 0 0 .22.02c.019 0 .037-.002.056-.003 2.483.147 4.972.222 7.462.222l.032.002.031-.002c2.49 0 4.98-.075 7.463-.222.019.001.037.003.056.003.043 0 .087-.003.131-.007.03-.003.06-.008.089-.013 1.274-.079 2.546-.174 3.814-.291l2.003-.184.037.001c.082 0 .165-.007.249-.024l.027-.006 3.42-.315a2.407 2.407 0 0 0 1.855-1.182c.39-.669.434-1.49.117-2.196l-1.302-2.895v-21.15a3.303 3.303 0 0 0 1.386-3.77zm-2.498.785a.675.675 0 0 1-.396.828l-1.11.435-.381.15c-.253.1-.52.143-.785.136a1.995 1.995 0 0 1-.893-.234l-9.202-4.912a6.08 6.08 0 0 0-4.137-.58l-6.047 1.3a2.75 2.75 0 0 1-2.367-.608l-4.176-3.622 24.422 2.86 2.4.28 1.167.137.314.037 1.191 3.793zm-2.672-6.601l-12.897-1.51v-8.722H91.71v10.232zm-8.838-24.77l.407.557c.3.412.318.978.042 1.408l-1.547 2.412a1.997 1.997 0 0 0-.128 1.935 1.996 1.996 0 0 0 1.57 1.14l2.599.32a1.8 1.8 0 0 1 1.197.673l.189.24a3.062 3.062 0 0 0 3.827.812l.682-.36v2.784H78.813V42.85h3.446c.242 0 .47.117.613.311zm-19.574.554c0-.477.388-.865.865-.865h12.032v12.233H71.3a1.308 1.308 0 1 0 0 2.617h4.895v8.414l-12.897-1.51V43.715zm-1.629 56.542h1.591l-.441 2.298-2.096-.194.947-2.104zm3.768 2.538l.488-2.538h3.133l-.281 2.816a120.02 120.02 0 0 1-2.617-.211l-.723-.067zm6.25-2.538h4.508v3.117a122.111 122.111 0 0 1-4.803-.145l.296-2.972zm-6.85-2.618h-2.705V68.5l1.166 1.011 4.051 3.514a5.378 5.378 0 0 0 4.631 1.19l6.047-1.3a3.462 3.462 0 0 1 2.355.33l9.202 4.912a4.62 4.62 0 0 0 2.126.544l.051.002c.374 0 .749-.047 1.116-.138v19.075h-28.04zm13.976 5.735v-3.117h4.508l.296 2.972c-1.6.08-3.202.128-4.804.145zm10.035-.512c-.871.08-1.743.15-2.617.211l-.28-2.816h3.132l.488 2.538-.723.067zm3.342-.307l-.442-2.298h1.59l.947 2.104-2.095.194z" fill="#44220F"/><path d="M91.156 47.518c.443.207.909.308 1.36.308.657 0 1.283-.214 1.764-.631 1.102-.956 1.264-3.08 1.206-4.694-.061-1.685-1.316-2.987-3.276-3.4-1.36-.286-3.3.014-4.376 1.141-.719.753-.963 1.752-.688 2.816.458 1.77 2.717 3.856 4.01 4.46zm-1.43-5.469c.251-.262.87-.434 1.45-.434.172 0 .34.015.495.047.275.058 1.176.297 1.199.933.047 1.306-.141 2.315-.308 2.61a.6.6 0 0 1-.298-.059c-.876-.409-2.398-2.024-2.584-2.744-.062-.239-.007-.297.047-.353zM83.51 85.267l-4.865-3.385 1.275-5.47a1.624 1.624 0 0 0-.675-1.724 1.622 1.622 0 0 0-1.852.013l-5.614 3.916a3.287 3.287 0 0 0-.557 4.901l3.995 4.415-1.579 4.525-.254.726a1.632 1.632 0 0 0 .628 1.891l.022.016a1.628 1.628 0 0 0 2.008-.172l2.647-2.462 5-4.65c.364-.339.553-.817.518-1.313a1.628 1.628 0 0 0-.697-1.227zm-6.348 5.037l.718-2.06a1.635 1.635 0 0 0-.331-1.635l-4.386-4.846a.663.663 0 0 1-.169-.526.665.665 0 0 1 .283-.474l3.513-2.45-.845 3.623a1.627 1.627 0 0 0 .658 1.713l4.412 3.07-3.853 3.585zM67.273 55.89a1.29 1.29 0 0 0-.283-.425 1.319 1.319 0 0 0-1.426-.282 1.322 1.322 0 0 0-.588.481 1.296 1.296 0 0 0-.195.471 1.313 1.313 0 0 0 1.028 1.539 1.315 1.315 0 0 0 1.464-.782 1.364 1.364 0 0 0 .101-.502 1.313 1.313 0 0 0-.101-.5z" fill="#44220F"/></g><defs><linearGradient id="paint0_linear" x1="1.877" y1="107.012" x2="143.815" y2="101.991" gradientUnits="userSpaceOnUse"><stop stop-color="#F59E27"/><stop offset=".476" stop-color="#F59E27" stop-opacity=".622"/><stop offset=".856" stop-color="#F59E27" stop-opacity=".078"/><stop offset="1" stop-color="#F59E27" stop-opacity="0"/></linearGradient><clipPath id="clip0"><path fill="#fff" transform="translate(44 39)" d="M0 0h67v67H0z"/></clipPath></defs></svg>
